modules/zondicons/icons/pen-tool.svg

<?xml version="1.0" encoding="UTF-8" standalone="no"?>
<svg width="20px" height="20px" viewBox="0 0 20 20" version="1.1" xmlns="http://www.w3.org/2000/svg" xmlns:xlink="http://www.w3.org/1999/xlink">
    <!-- Generator: Sketch 3.7.2 (28276) - http://www.bohemiancoding.com/sketch -->
    <title>pen-tool</title>
    <desc>Created with Sketch.</desc>
    <defs></defs>
    <g id="Page-1" stroke="none" stroke-width="1" fill="none" fill-rule="evenodd">
        <g id="pen-tool" fill="#000000">
            <path d="M11,9.26756439 L11,0 L9,0 L9,9.26756439 C8.40219863,9.61337381 8,10.2597176 8,11 C8,12.1045695 8.8954305,13 10,13 C11.1045695,13 12,12.1045695 12,11 C12,10.2597176 11.5978014,9.61337381 11,9.26756439 Z M3,11 L9,0 L11,0 L17,11 L13,17 L7,17 L3,11 Z M6,18 L14,18 L14,20 L6,20 L6,18 Z" id="Combined-Shape"></path>
        </g>
    </g>
</svg>

<svg width="20" height="20" viewBox="0 0 20 20" xmlns="http://www.w3.org/2000/svg"><path d="M11 9.268V0H9v9.268a2 2 0 1 0 2 0zM3 11L9 0h2l6 11-4 6H7l-4-6zm3 7h8v2H6v-2z" fill="#000" fill-rule="evenodd"/></svg>
